svgs/sharp-light/monkey.svg

<svg xmlns="http://www.w3.org/2000/svg" viewBox="0 0 576 512"><!--! Font Awesome Pro 6.6.0 by @fontawesome - https://fontawesome.com License - https://fontawesome.com/license (Commercial License) Copyright 2024 Fonticons, Inc. --><path d="M160 416c0-76.1 38-143.4 96-183.8l0 39.8 0 .9C216.7 308 192 359.1 192 416l0 64 224 0 0-48c0-44.2-35.8-80-80-80l-32 0-16 0 0-32 16 0 32 0c31.3 0 59.7 12.9 80 33.6l0-33.6 0-16 53 0L571.7 413l4.3 4.6 0 6.3 0 72 0 16-32 0 0-16 0-65.7-96-102L448 432l0 48 32 0 16 0 0 32-16 0-32 0-32 0-224 0-32 0-16 0C64.5 512 0 447.5 0 368L0 16 0 0 16 0 176 0l16 0 0 16 0 160 0 16-16 0-96 0-16 0 0-32 16 0 80 0 0-128L32 32l0 336c0 61.9 50.1 112 112 112l16 0 0-64zM464 64c-14.6-19.4-37.8-32-64-32s-49.4 12.6-64 32l128 0zm16 48c0 23.8-17.3 43.5-40 47.3l0 48.7-80 0 0-48.7c-22.7-3.8-40-23.6-40-47.3l0 32 0 32 0 64 160 0 0-64 0-32 0-32zm32 128l0 32-32 0-160 0-32 0 0-32 0-64c-35.3 0-64-28.7-64-64s28.7-64 64-64l20.1 0C328.3 19 361.9 0 400 0s71.7 19 91.9 48L512 48c35.3 0 64 28.7 64 64s-28.7 64-64 64l0 64zm0-128l0 32c17.7 0 32-14.3 32-32s-14.3-32-32-32l-4.6 0c3 10.1 4.6 20.9 4.6 32zM288 144l0-32c0-11.1 1.6-21.9 4.6-32L288 80c-17.7 0-32 14.3-32 32s14.3 32 32 32zm80-16a16 16 0 1 0 0-32 16 16 0 1 0 0 32zm80-16a16 16 0 1 0 -32 0 16 16 0 1 0 32 0z"/></svg>

<svg xmlns="http://www.w3.org/2000/svg" viewBox="0 0 576 512"><!--! Font Awesome Pro 6.5.2 by @fontawesome - https://fontawesome.com License - https://fontawesome.com/license (Commercial License) Copyright 2024 Fonticons, Inc. --><path d="M160 416c0-76.1 38-143.4 96-183.8V272v.9C216.7 308 192 359.1 192 416v64H416V432c0-44.2-35.8-80-80-80H304 288V320h16 32c31.3 0 59.7 12.9 80 33.6V320 304h53L571.7 413l4.3 4.6V424v72 16H544V496 430.3l-96-102V432v48h32 16v32H480 448 416 192 160 144C64.5 512 0 447.5 0 368V16 0H16 176h16V16 176v16H176 80 64V160H80h80V32H32V368c0 61.9 50.1 112 112 112h16V416zM464 64c-14.6-19.4-37.8-32-64-32s-49.4 12.6-64 32H464zm16 48c0 23.8-17.3 43.5-40 47.3V208H360V159.3c-22.7-3.8-40-23.6-40-47.3v32 32 64H480V176 144 112zm32 128v32H480 320 288V240 176c-35.3 0-64-28.7-64-64s28.7-64 64-64h20.1C328.3 19 361.9 0 400 0s71.7 19 91.9 48H512c35.3 0 64 28.7 64 64s-28.7 64-64 64v64zm0-128v32c17.7 0 32-14.3 32-32s-14.3-32-32-32h-4.6c3 10.1 4.6 20.9 4.6 32zM288 144V112c0-11.1 1.6-21.9 4.6-32H288c-17.7 0-32 14.3-32 32s14.3 32 32 32zm80-16a16 16 0 1 0 0-32 16 16 0 1 0 0 32zm80-16a16 16 0 1 0 -32 0 16 16 0 1 0 32 0z"/></svg>
